src/img/svg/logo-bank/4.svg

<svg width="82" height="30" viewBox="0 0 82 30" fill="none" xmlns="http://www.w3.org/2000/svg">
<path d="M23.6961 3.95929H4.21927L5.62166 0.101562H25.0995L23.6961 3.95929ZM22.9954 5.88909H3.5083L2.10498 9.74774H21.5828L22.9954 5.88909ZM20.8895 11.6598H1.40425L0 15.5185H19.461L20.8904 11.6608L20.8895 11.6598Z" fill="#009FDF"/>
<path d="M70.1074 25.1749H73.6147C74.1133 25.2344 74.6189 25.1703 75.0869 24.9883C75.5549 24.8063 75.971 24.512 76.2984 24.1312C76.7797 23.5013 77.0221 22.7211 76.9823 21.9294C77.0152 21.4258 76.9227 20.9219 76.7131 20.4628C76.5035 20.0037 76.1833 19.6038 75.7812 19.2988C75.1302 18.8726 74.3559 18.675 73.5803 18.7369H70.1074V25.1749ZM65.5023 29.0596V5.88903H80.5791L79.2541 9.77472H70.1074V14.9044H73.8346C76.8426 14.9044 78.4033 15.6237 79.4815 16.5444C80.2528 17.2273 80.8595 18.076 81.256 19.0269C81.6526 19.9777 81.8286 21.006 81.7709 22.0346C81.8302 23.1423 81.6118 24.2473 81.1355 25.2491C80.6592 26.2508 79.9401 27.1177 79.0435 27.7709C77.5964 28.7698 76.0803 29.0512 72.9923 29.0512L65.5023 29.0596ZM52.155 29.0596V9.7654H45.4552V5.88903H64.0561L62.7311 9.77472H56.8029V29.068L52.155 29.0596ZM33.5885 15.1681H36.2199C36.7579 15.2047 37.2984 15.1633 37.8245 15.0451C38.3717 14.8702 38.8432 14.5147 39.1618 14.0368C39.4804 13.5588 39.6272 12.9869 39.5782 12.4146C39.6513 11.8458 39.5131 11.2699 39.1899 10.7962C38.8667 10.3225 38.3808 9.98392 37.8245 9.8446C37.2501 9.71106 36.6599 9.65775 36.0708 9.68619H33.5885V15.1681ZM33.5885 19.1758V25.2531H36.7986C37.683 25.3541 38.5722 25.1091 39.28 24.5692C39.6064 24.267 39.8621 23.8965 40.029 23.4842C40.1958 23.0719 40.2697 22.6279 40.2454 22.1837C40.259 21.4741 40.0433 20.779 39.6304 20.2018C38.9474 19.3249 38.105 19.1581 36.6672 19.1581L33.5885 19.1758ZM41.0076 16.7289V16.8081C41.7896 17.1089 42.5204 17.5289 43.1741 18.053C43.8348 18.6013 44.3569 19.2975 44.6982 20.0853C45.0395 20.8731 45.1903 21.7303 45.1384 22.5872C45.1384 25.7535 43.4546 28.0421 40.6927 28.726C39.5913 28.9955 38.4568 29.1051 37.3241 29.0512H28.9844V5.8881H36.4035C37.582 5.84493 38.7612 5.95392 39.9118 6.21237C42.5954 6.93174 44.3584 8.78233 44.3584 11.7026C44.3804 12.3989 44.2604 13.0923 44.0057 13.7406C43.7509 14.389 43.3669 14.9786 42.8769 15.4737C42.356 16.0023 41.7356 16.4226 41.0514 16.7102L41.0076 16.7289Z" fill="#0A2973"/>
</svg>

<svg width="82" height="30" viewBox="0 0 82 30" fill="none" xmlns="http://www.w3.org/2000/svg"><path d="M23.696 3.96H4.22L5.622.101h19.477l-1.403 3.857Zm-.7 1.93H3.507L2.105 9.747h19.478l1.412-3.859Zm-2.106 5.77H1.404L0 15.518h19.461l1.43-3.857-.001-.001Z" fill="#009FDF"/><path d="M70.107 25.175h3.508a3.061 3.061 0 0 0 2.683-1.044 3.35 3.35 0 0 0 .684-2.202 3.052 3.052 0 0 0-1.2-2.63 3.509 3.509 0 0 0-2.202-.562h-3.473v6.438Zm-4.605 3.885V5.889H80.58l-1.325 3.886h-9.147v5.13h3.728c3.008 0 4.568.719 5.647 1.64a6.823 6.823 0 0 1 2.289 5.49 6.658 6.658 0 0 1-2.728 5.736c-1.447.999-2.963 1.28-6.05 1.28l-7.49.009Zm-13.347 0V9.765h-6.7V5.89h18.601l-1.325 3.886h-5.928v19.293l-4.648-.008ZM33.589 15.168h2.63a5.59 5.59 0 0 0 1.605-.123 2.535 2.535 0 0 0 1.754-2.63 2.342 2.342 0 0 0-1.754-2.57 6.385 6.385 0 0 0-1.753-.159h-2.482v5.482Zm0 4.008v6.077h3.21a3.447 3.447 0 0 0 2.481-.684 3.026 3.026 0 0 0 .965-2.385 3.298 3.298 0 0 0-.615-1.982c-.683-.877-1.525-1.044-2.963-1.044l-3.078.018Zm7.419-2.447v.08c.782.3 1.512.72 2.166 1.244a5.463 5.463 0 0 1 1.964 4.534c0 3.166-1.683 5.455-4.445 6.139-1.102.27-2.236.38-3.369.325h-8.34V5.888h7.42a13.717 13.717 0 0 1 3.508.324c2.683.72 4.446 2.57 4.446 5.49a5.13 5.13 0 0 1-1.481 3.772 5.621 5.621 0 0 1-1.826 1.236l-.043.019Z" fill="#0A2973"/></svg>
